assets/img/arrow-sm.svg

<svg width="44" height="88" viewBox="0 0 44 88" fill="none" xmlns="http://www.w3.org/2000/svg">
<path d="M13.5451 87.0883C13.8142 87.1506 14.0828 86.9831 14.1451 86.714L15.1604 82.3301C15.2227 82.0611 15.0551 81.7925 14.7861 81.7302C14.5171 81.6678 14.2485 81.8354 14.1862 82.1044L13.2837 86.0013L9.38681 85.0988C9.11779 85.0365 8.8492 85.204 8.78689 85.473C8.72458 85.7421 8.89216 86.0107 9.16118 86.073L13.5451 87.0883ZM14.0822 86.3366C13.3911 85.229 12.7287 84.1268 12.095 83.0304L11.2292 83.5308C11.8687 84.6373 12.537 85.749 13.2337 86.8659L14.0822 86.3366ZM8.49303 76.2215C7.34658 73.8277 6.3442 71.4647 5.48675 69.1348L4.54829 69.4801C5.41727 71.8414 6.43205 74.2333 7.59113 76.6534L8.49303 76.2215ZM3.23583 61.7833C2.61432 59.2185 2.18132 56.7 1.93794 54.2312L0.942761 54.3293C1.19099 56.8473 1.6322 59.4117 2.26396 62.0188L3.23583 61.7833ZM1.80258 46.5786C1.97551 44.0009 2.37601 41.4855 3.00598 39.0366L2.03751 38.7875C1.39177 41.2977 0.981771 43.8741 0.804822 46.5116L1.80258 46.5786ZM5.60374 31.8559C6.67346 29.5944 7.96557 27.3986 9.48286 25.2725L8.66889 24.6916C7.11826 26.8644 5.79572 29.1114 4.69977 31.4283L5.60374 31.8559ZM14.4149 19.4104C16.1417 17.6461 18.048 15.9396 20.1357 14.2941L19.5167 13.5087C17.3974 15.1791 15.4589 16.9141 13.7003 18.711L14.4149 19.4104ZM26.4181 9.87335C28.5107 8.5541 30.7395 7.28258 33.1057 6.06084L32.6469 5.17229C30.2569 6.40632 28.0031 7.69196 25.8848 9.02742L26.4181 9.87335ZM40.084 2.77467C41.2482 2.27446 42.4397 1.78445 43.6584 1.30482L43.2922 0.374285C42.0642 0.857574 40.8632 1.35149 39.6893 1.85588L40.084 2.77467Z" fill="#CECECE"/>
</svg>

<svg width="44" height="88" viewBox="0 0 44 88" fill="none" xmlns="http://www.w3.org/2000/svg"><path d="M13.545 87.088a.5.5 0 0 0 .6-.374l1.015-4.384a.5.5 0 0 0-.974-.226l-.902 3.897-3.897-.902a.5.5 0 1 0-.226.974l4.384 1.015Zm.537-.751a114.214 114.214 0 0 1-1.987-3.307l-.866.5c.64 1.107 1.308 2.219 2.005 3.336l.848-.53ZM8.493 76.222a81.952 81.952 0 0 1-3.006-7.087l-.939.345a82.933 82.933 0 0 0 3.043 7.173l.902-.431ZM3.236 61.783a54.971 54.971 0 0 1-1.298-7.552l-.995.098a55.97 55.97 0 0 0 1.321 7.69l.972-.236ZM1.803 46.58a41.313 41.313 0 0 1 1.203-7.542l-.968-.25a42.313 42.313 0 0 0-1.233 7.725l.998.067Zm3.8-14.723a42.917 42.917 0 0 1 3.88-6.584l-.814-.58a43.919 43.919 0 0 0-3.97 6.736l.905.428Zm8.812-12.446a59.696 59.696 0 0 1 5.72-5.116l-.618-.785A60.68 60.68 0 0 0 13.7 18.71l.715.7Zm12.003-9.537a89.71 89.71 0 0 1 6.688-3.812l-.46-.889a90.707 90.707 0 0 0-6.761 3.855l.533.846Zm13.666-7.098c1.164-.5 2.356-.99 3.574-1.47l-.366-.93a126.18 126.18 0 0 0-3.603 1.48l.395.92Z" fill="#CECECE"/></svg>
